X: 1
T: McKenna's
M: 4/4
L: 1/8
R: reel
K: Gmaj
|:D | G2 dB cAFD|GABc dBcA|G2 dB cAFD|GBAF G3D|
|G2 dB cAFD|GABc defg|afge fdcA|1GBAF G2 (3DEF:|2 GBAF G2 ag||
|:fdde fdcA|dggf g2 ag|fdde fdcA|GBAF G2 ag|
|fdde fdcA|dggf g2 ag|fdde fdcA|1 GBAF G2 ag:|2 GBAF G2 (3DEF||
